X:10
T:Blackthorn Stick No. 1
Z: id:dc-jig-7
M:6/8
L:1/8
K:G Major
d|gfg ege|dBG AGE|DGG FGA|BGB A2d|!
gfg age|dBG AGE|DGG FGA|BGF G2:|!
d|edd gdd|edd gdd|ede gfg|edB A2d|!
gfg age|dBG AGE|DGG FGA|BGF G2:|!

